X:12397
T:Egg-Jodel  Bb  ABAC
T:Xaver Ambauen  (* 3.2.1925)
T:Dirigenten-Notiz, Edi Gasser
C:Unterwalden (CH)
M:6/8
R:Naturjodel
L:1/8
I:abc-charset utf-8
K:Bb
[P:A] "getragen"  F | dE Fc eF | B>G Fd BF | c>A Fe dc | B>G F d2F | 
dE Fc eF | B>G Fd BF | c>A Fe dc | B4zz || 
L:1/8
M:6/8
[P:B] e/d/ | c2E e>d c | B>D F e>d c/B/ | A>E F f>e d/c/ | B>D F d2 e/d/ | 
c2E e>d c | B>D F f>d c/B/ | A>E F f>e d/c/ | B4"_>Teil A"z ||
M:6/8
[P:C] F//  F/d/ | B>D F/B/ D F B | A>E F/A/ E2 F/e/ | A>E F d2 c | 
B>D F d2 F//  F/d/ | B>D F/B/ D F B | A>E F/A/ E2 F/e/ | A>E F d2 c | B6 |] 
W:
%W:Reihenfolge:
W:notiert Edi Gasser, nach Angabe von  Hans Schmid
W:UJV-Naturjodelsammlung: Code-Nr: 08-01
W:http://www.naturjodler.ch/code 08.htm  (with AUDIO)
W:http://www.naturjodler.ch/vokalisation.htm
%May 3, 2018

